X:1
T:Hor il cor ferito
T:Ho il cor ferito
T:Gioan Felice Sances
T:Source : Capricci poetici---Venetia---A.Gardano---1649. Editor : André Vierendeels (11/05/15).
T:Notes : Original clefs : C1, F4 Editorial accidentals above the staff Figures in BC are notated33 in original print Dotted brackets indicate black notes From m6, notation in 3/2 in original print From m6 note values have been halved 
C:Gioan Felice Sances
%%score 1 2
L:1/8
Q:1/4=76
M:4/4
K:F
V:1 treble nm="Soprano" snm="S"
V:2 bass nm="BC" snm="BC"
V:1
 z2 B2 c3 c | d2 dc BA Bc | A2 z c d3 d | _e2 ef ed ef | d8 |[M:3/4] z2 F3 F | G2 G2 G2 | %7
w: Ho'il cor fe-|ri- to e mo- * ri- *|ro, ho'il cor fe-|ri- to e mo- * ri- *|ro,|chi fe-|ri- to'e nel|
w: Ho'il se- no'ar-|den- te e s'a- * pri- *|ra, ho'il se- no'ar-|den- te e s'a- * pri- *|ra,|ch'al- tra|fiam- ma d'A-|
w: Ho'il so- le|a schi- vo'e m'in- * va- *|ghi, ho'il so- le|a schi- vo'e m'in- * va- *|ghi,|chi gi-|ra'in- fer- m'i-|
 AG AB cd | _ed ec de | f2 d_e fe | d2 d3 c | c2 G3 G | A2 A2 A2 | BA GA Bc | d2 _ed cB | A2 A3 G | %16
w: cor * * * * *||* vi- * * *|* ver non|puo, chi fe-|ri- to'e nel|cor _ _ _ _ _|_ vi- * * *|* ver non|
w: mor _ _ _ _ _|_ _ _ _ _ _|* chiu- * * *|* sa non|sta, ch'al- tra|fiam- ma d'A-|mor _ _ _ _ _|_ chiu- * * *|* sa non|
w: rai _ _ _ _ _|_ _ _ _ _ _|* non _ _ _|_ cu- ra'il|di, chi gi-|ra'in- fer- m'i-|rai _ _ _ _ _|_ non _ _ _|_ cu- ra'il|
 G6 | FG AF GA | GB cd _ed | c2 c3 B | B6 :: F2 B2 A2 | G3 G G2 | G2 c2 B2 | A3 A A2 | z2 c2 c2 | %26
w: puo,|vi- * * * * *||* ver non|puo.|Di sguar- do'af-|fa- bi- le,|di suo- no'a-|ma- bi- le|il mio|
w: sta,|chiu _ _ _ _ _|_ _ _ _ _ _|* sta non|sta.|Di fon- te|fri- gi- da,|di nue- ve|ri- gi- da|il mio|
w: di,|non _ _ _ _ _|_ _ _ _ _ _|* cu- ra'il|di.|Di pom- pe|flo- ri- de|a cru- da|Clo- ri- de|il mio|
 d_e dc BA | G2 c2 B2 | B2 A4 | G4 G2 | F2 FE FG | E2 E2 c2 | B2 BA Bc | A2 A2 f2 | _e2 ed ef | %35
w: cor, _ _ _ _ _|_ non sap-|pa- *|ga, a|chi si _ _ _|muo- re, a|chi si _ _ _|muo- re, a|chi si _ _ _|
w: cor, _ _ _ _ _|_ non sap-|pa- *|ga *||||||
w: cor, _ _ _ _ _|_ non sap-|pa- *|ga *||||||
 d4 d2 | d2 A2 c2 | BA Bc de | f4 z2 | e2 e4 | d4 d2 | c2 c=B cd | =B2 B2 G2 | F2 FE FG | %44
w: muo- re,|o- gni ri-|me- * * * * *|dio|e pia-|ga, a|chi si _ _ _|muo- re, a|chi si _ _ _|
w: |||||||||
w: |||||||||
 E2 E2 c2 | B2 BA Bc | A4 A2 | A2 E2 G2 | FE FG AB | c6 | d2 G4 | F6 | f2 c2 _e2 | d_e dc BA | %54
w: muo- re, a|chi si _ _ _|muo- re,|o- gni ri-|me- * * * * *|dio,|e pia-|ga,|o- gni re-|me- * * * * *|
w: ||||||||||
w: ||||||||||
 G4 G2 | f2 c4 | B6 :| %57
w: * dio,|e pia-|ga.|
w: |||
w: |||
V:2
 B,4 B,2 A,2 |"^2" B,3 A, G,2 C,2 |"^#""^b" F,3 E, D,2 G,2 |"^4 3" C,3 D, _E,2 F,2 | B,,8 | %5
[M:3/4] B,,2 B,3 A, | G,2 C2 C,2 | F,2 _E,2 D,2 | C,2 C2 B,2 | _A,2 F,4 | G,6 | C,4 B,,2 | %12
 A,,2 D,4 | G,,4 A,,2 | B,,2 C,4 | D,6 | G,3 G, F,E, | D,6 | _E,6 | F,4 F,,2 | B,,6 :: B,,6 | %22
 _E,6 | C,6 | F,6 | A,,6 | B,,6 | C,6 | D,6 | G,,6 | A,,2 =B,,4 | C,6 | D,2 E,4 |"^7" F,6 | %34
 G,2 A,4 | B,2 A,2 G,2 | ^F,6 |"^-natural" G,2 F,2 E,2 | D,3 E, F,2 | G,2 A,4 | D,6 | E,2 ^F,4 | %42
 G,4 G,,2 | A,,2 =B,,4 | C,6 | D,2 E,4 | F,2 E,2 D,2 | ^C,6 |"^-natural" D,2 C,2 B,,2 | A,,6 | %50
 B,,2 C,4 | F,,2 F,2 G,2 | A,6 | B,6 | _E,6 | D,2 F,4 | B,,6 :| %57

